svg/fluentui-system-icons/ic_fluent_contact_card_group_28_regular.svg

<svg width="28" height="28" viewBox="0 0 28 28" fill="none" xmlns="http://www.w3.org/2000/svg">
<path d="M16.9998 12.25C16.9998 11.8358 17.3355 11.5 17.7498 11.5H21.2498C21.664 11.5 21.9998 11.8358 21.9998 12.25C21.9998 12.6642 21.664 13 21.2498 13H17.7498C17.3355 13 16.9998 12.6642 16.9998 12.25ZM17.7498 15C17.3355 15 16.9998 15.3358 16.9998 15.75C16.9998 16.1642 17.3355 16.5 17.7498 16.5H21.2498C21.664 16.5 21.9998 16.1642 21.9998 15.75C21.9998 15.3358 21.664 15 21.2498 15H17.7498ZM14.9998 12C14.9998 12.8284 14.3282 13.5 13.4998 13.5C12.6713 13.5 11.9998 12.8284 11.9998 12C11.9998 11.1716 12.6713 10.5 13.4998 10.5C14.3282 10.5 14.9998 11.1716 14.9998 12ZM6.99976 14.5C6.44747 14.5 5.99976 14.9477 5.99976 15.5V16.5C5.99976 16.5 5.99976 18.5 8.74976 18.5C11.4998 18.5 11.4998 16.5 11.4998 16.5V15.5C11.4998 14.9477 11.052 14.5 10.4998 14.5H6.99976ZM10.4998 11.75C10.4998 12.7165 9.71625 13.5 8.74976 13.5C7.78326 13.5 6.99976 12.7165 6.99976 11.75C6.99976 10.7835 7.78326 10 8.74976 10C9.71625 10 10.4998 10.7835 10.4998 11.75ZM13.4997 17.5H12.285C12.3542 17.3298 12.4004 17.1715 12.4315 17.0359C12.4637 16.8954 12.4806 16.7748 12.4896 16.6837C12.4941 16.6379 12.4966 16.5991 12.498 16.5682L12.4986 16.5547H12.4997V15.5C12.4997 15.1357 12.4023 14.7942 12.2322 14.5H14.4997C15.052 14.5 15.4997 14.9477 15.4997 15.5C15.4997 16.6046 14.6043 17.5 13.4997 17.5ZM2.00391 7.75C2.00391 5.67893 3.68284 4 5.75391 4H22.2505C24.3216 4 26.0005 5.67893 26.0005 7.75V20.2501C26.0005 22.3211 24.3216 24.0001 22.2505 24.0001H5.75391C3.68284 24.0001 2.00391 22.3211 2.00391 20.2501V7.75ZM5.75391 5.5C4.51127 5.5 3.50391 6.50736 3.50391 7.75V20.2501C3.50391 21.4927 4.51127 22.5001 5.75391 22.5001H22.2505C23.4932 22.5001 24.5005 21.4927 24.5005 20.2501V7.75C24.5005 6.50736 23.4932 5.5 22.2505 5.5H5.75391Z" fill="#212121"/>
</svg>

<svg xmlns="http://www.w3.org/2000/svg" width="28" height="28"><path d="M17 12.25a.75.75 0 0 1 .75-.75h3.5a.75.75 0 0 1 0 1.5h-3.5a.75.75 0 0 1-.75-.75Zm.75 2.75a.75.75 0 1 0 0 1.5h3.5a.75.75 0 0 0 0-1.5h-3.5ZM15 12a1.5 1.5 0 1 1-3 0 1.5 1.5 0 0 1 3 0Zm-8 2.5a1 1 0 0 0-1 1v1s0 2 2.75 2 2.75-2 2.75-2v-1a1 1 0 0 0-1-1H7Zm3.5-2.75a1.75 1.75 0 1 1-3.5 0 1.75 1.75 0 0 1 3.5 0Zm3 5.75h-1.215a3.037 3.037 0 0 0 .205-.816c.004-.046.007-.085.008-.116v-.013h.002V15.5c0-.364-.098-.706-.268-1H14.5a1 1 0 0 1 1 1 2 2 0 0 1-2 2ZM2.004 7.75A3.75 3.75 0 0 1 5.754 4H22.25A3.75 3.75 0 0 1 26 7.75v12.5A3.75 3.75 0 0 1 22.25 24H5.755a3.75 3.75 0 0 1-3.75-3.75V7.75Zm3.75-2.25a2.25 2.25 0 0 0-2.25 2.25v12.5a2.25 2.25 0 0 0 2.25 2.25H22.25a2.25 2.25 0 0 0 2.25-2.25V7.75a2.25 2.25 0 0 0-2.25-2.25H5.755Z"/></svg>
